dist/img/svg/close.svg

<svg width="32" height="32" viewBox="0 0 32 32" fill="none" xmlns="http://www.w3.org/2000/svg">
<path d="M12.2266 19.7732L19.7732 12.2266" stroke="currentColor" stroke-width="1.5" stroke-linecap="round" stroke-linejoin="round"/>
<path d="M19.7732 19.7732L12.2266 12.2266" stroke="currentColor" stroke-width="1.5" stroke-linecap="round" stroke-linejoin="round"/>
<path d="M11.9993 29.3332H19.9993C26.666 29.3332 29.3327 26.6665 29.3327 19.9998V11.9998C29.3327 5.33317 26.666 2.6665 19.9993 2.6665H11.9993C5.33268 2.6665 2.66602 5.33317 2.66602 11.9998V19.9998C2.66602 26.6665 5.33268 29.3332 11.9993 29.3332Z" stroke="currentColor" stroke-width="1.5" stroke-linecap="round" stroke-linejoin="round"/>
</svg>

<svg width="32" height="32" viewBox="0 0 32 32" fill="none" xmlns="http://www.w3.org/2000/svg"><path d="M12.227 19.773l7.546-7.546m0 7.546l-7.546-7.546M12 29.333h8c6.666 0 9.333-2.666 9.333-9.333v-8c0-6.667-2.667-9.334-9.334-9.334h-8c-6.666 0-9.333 2.667-9.333 9.334v8c0 6.666 2.667 9.333 9.333 9.333z" stroke="currentColor" stroke-width="1.5" stroke-linecap="round" stroke-linejoin="round"/></svg>
